status/24/fcitx-shuangpin.svg

<svg xmlns="http://www.w3.org/2000/svg" viewBox="0 0 24 24" width="24" height="24">
  <defs id="defs3051">
    <style type="text/css" id="current-color-scheme">.ColorScheme-Text {color:#fcfcfc;}</style>
  </defs>
  <g transform="translate(1,1)">
    <path style="fill:currentColor;fill-opacity:1;stroke:none" d="m 3,6 v 10 c 0,0 0,3 3,3 3,0 7,0 10,0 3,0 3,-3 3,-3 V 6 C 19,6 19,3 16,3 13,3 9,3 6,3 3,3 3,6 3,6 Z m 1,0 c 0,0 0,-2 2,-2 2,0 8,0 10,0 2,0 2,2 2,2 v 10 c 0,0 0,2 -2,2 C 14,18 8,18 6,18 4,18 4,16 4,16 Z M 5,5 V 6 H 9.4277344 C 9.3567399,6.6433848 9.1095505,8.7368774 8.5585938,10.642578 7.8640436,9.6798255 7.0718951,8.6616876 5.890625,7.1875 l -0.78125,0.6269531 c 1.4174333,1.768857 2.2870807,2.8838839 3.0527344,3.9902349 -1.2932813,3.342269 -3.2636719,4.656249 -3.2636719,4.65625 l 0.5566406,0.832031 c 0,0 1.9707929,-1.362982 3.3652344,-4.488281 0.4371629,0.686564 0.8829906,1.421585 1.4218755,2.375 l 0.86914,-0.490235 C 10.412442,13.452965 9.856111,12.550817 9.2734375,11.677734 10.169908,9.0698901 10.498047,5.5488281 10.498047,5.5488281 L 10.548828,5 Z m 6,0 v 1 h 0.589844 c 0.101934,0.5915985 0.552462,3.1367245 1.310547,5.09375 0.265281,0.684811 0.549026,1.343749 0.886718,1.992188 -1.288059,2.041728 -3.068359,3.142578 -3.068359,3.142578 l 0.517578,0.855468 c 0,0 1.710317,-1.050173 3.103516,-3.037109 0.655672,1.023639 1.52165,2.030149 2.802734,3.064453 l 0.626953,-0.779297 c -1.383561,-1.117032 -2.21998,-2.147051 -2.84375,-3.230469 0.12558,-0.227385 0.256224,-0.447093 0.367188,-0.693359 C 16.167139,10.468103 17,7.6466006 17,5.5 V 5 Z m 1.607422,1 h 3.316406 c -0.108623,1.8531004 -0.786023,4.318047 -1.542969,5.998047 -0.0025,0.0055 -0.0053,0.01017 -0.0078,0.01563 -0.18806,-0.413838 -0.365555,-0.833366 -0.539063,-1.28125 C 13.175782,9.0332602 12.746688,6.7654286 12.607422,6 Z" class="ColorScheme-Text"/>
  </g>
</svg>

<svg xmlns="http://www.w3.org/2000/svg" viewBox="0 0 24 24" width="24" height="24">
  <defs id="defs3051">
    <style type="text/css" id="current-color-scheme">
      .ColorScheme-Text {
        color:#eff0f1;
      }
      </style>
  </defs>
  <g transform="translate(1,1)">
    <path style="fill:currentColor;fill-opacity:1;stroke:none" d="M 3 3.0019531 L 3 19 L 19 19 L 19 3.0019531 L 3 3.0019531 z M 4 4 L 18 4 L 18 18 L 4 18 L 4 4 z M 5 5 L 5 6 L 9.4277344 6 C 9.3567399 6.6433848 9.1095505 8.7368774 8.5585938 10.642578 C 7.8640436 9.6798255 7.0718951 8.6616876 5.890625 7.1875 L 5.109375 7.8144531 C 6.5268083 9.5833101 7.3964557 10.698337 8.1621094 11.804688 C 6.8688281 15.146957 4.8984375 16.460937 4.8984375 16.460938 L 5.4550781 17.292969 C 5.4550781 17.292969 7.425871 15.929987 8.8203125 12.804688 C 9.2574754 13.491252 9.7033031 14.226273 10.242188 15.179688 L 11.111328 14.689453 C 10.412442 13.452965 9.856111 12.550817 9.2734375 11.677734 C 10.169908 9.0698901 10.498047 5.5488281 10.498047 5.5488281 L 10.548828 5 L 5 5 z M 11 5 L 11 6 L 11.589844 6 C 11.691778 6.5915985 12.142306 9.1367245 12.900391 11.09375 C 13.165672 11.778561 13.449417 12.437499 13.787109 13.085938 C 12.49905 15.127666 10.71875 16.228516 10.71875 16.228516 L 11.236328 17.083984 C 11.236328 17.083984 12.946645 16.033811 14.339844 14.046875 C 14.995516 15.070514 15.861494 16.077024 17.142578 17.111328 L 17.769531 16.332031 C 16.38597 15.214999 15.549551 14.18498 14.925781 13.101562 C 15.051361 12.874177 15.182005 12.654469 15.292969 12.408203 C 16.167139 10.468103 17 7.6466006 17 5.5 L 17 5 L 11 5 z M 12.607422 6 L 15.923828 6 C 15.815205 7.8531004 15.137805 10.318047 14.380859 11.998047 C 14.378395 12.003516 14.375521 12.008213 14.373047 12.013672 C 14.184987 11.599834 14.007492 11.180306 13.833984 10.732422 C 13.175782 9.0332602 12.746688 6.7654286 12.607422 6 z " class="ColorScheme-Text"/>
  </g>
</svg>
